Newaita/actions/32/draw-triangle2.svg

<svg height="32" viewBox="0 0 32 32" width="32" xmlns="http://www.w3.org/2000/svg"><path d="m26.453125 16.0625c-.023437-.449219-.273437-.855469-.660156-1.078125l-18.523438-10.585937c-.410156-.230469-.910156-.230469-1.316406.003906-.40625.238281-.65625.671875-.65625 1.140625v21.167969c0 .46875.25.902343.65625 1.140624.40625.234376.90625.234376 1.316406.003907l18.523438-10.585938c.429687-.246093.683593-.710937.660156-1.207031zm-3.96875.0625-14.550781 8.316406v-16.628906zm0 0" fill="#424242"/></svg>

<svg xmlns="http://www.w3.org/2000/svg" xmlns:xlink="http://www.w3.org/1999/xlink" width="32px" height="32px" viewBox="0 0 32 32" version="1.1">
<g id="surface1">
     <defs>
  <style id="current-color-scheme" type="text/css">
   .ColorScheme-Text { color:#424242; } .ColorScheme-Highlight { color:#eeeeee; }
  </style>
 </defs>
<path style="fill:currentColor" class="ColorScheme-Text" d="M 26.453125 16.0625 C 26.429688 15.613281 26.179688 15.207031 25.792969 14.984375 L 7.269531 4.398438 C 6.859375 4.167969 6.359375 4.167969 5.953125 4.402344 C 5.546875 4.640625 5.296875 5.074219 5.296875 5.542969 L 5.296875 26.710938 C 5.296875 27.179688 5.546875 27.613281 5.953125 27.851562 C 6.359375 28.085938 6.859375 28.085938 7.269531 27.855469 L 25.792969 17.269531 C 26.222656 17.023438 26.476562 16.558594 26.453125 16.0625 Z M 22.484375 16.125 L 7.933594 24.441406 L 7.933594 7.8125 Z M 22.484375 16.125 "/>
</g>
</svg>
